X:13539
T:POULE
Z: Yves BELOTTEAU
M:4/4
L:1/8
Q:1/4=120
K:G 
|:B3/2A/2Bc B3/2 z/2 G3/2 z/2 |GBde dBd3/2 z/2:|
BBBA/2c/2 eee3/2 z/2 |AAAF/2B/2 eed3/2 z/2 |BBBA/2c/2 eee3/2 z/2 |Aced c
AG3/2 z/2 |
G3/2 z/2 D3/2 z/2 D3/2|
